X: 28239
T: Mrs. Grant Of Laggan
R: strathspey
M: 4/4
K: Adorian
e|(d/c/B/A/) ^G>B AA,A,B,|C>D E<^F G2 GB|(A/B/c) (B/c/d) AA,A,B,|CDE^G A2AB|
(d/c/B/A/) B>^G A<EG>D|E<GTB,>A, A,<G, G,A,/B,/|(3CB,A, (3DCB, (3EDC (3B,CD|(3Edc (3BA^G A2A||
c/B/|A<e Tc>B A/B/c/B/ AE|G<B G>D TB,2 G,c/B/|A<e Tc>B (A/B/)(c/d/) ea|c>AB>^G A2 Ac/B/|
A>e d/c/B/A/ B>^GA>E|G<B G>D TB,2 G,A,/B,/|(3CB,A, (3DCB, (3EDC (3B,CD|(3Edc (3BA^G A2A||

